src/lib/packages/icons/src/assets/line/shield-check.svg

<svg width="24" height="24" viewBox="0 0 24 24" fill="none" xmlns="http://www.w3.org/2000/svg">
<path d="M12 22.7501C11.92 22.7501 11.8399 22.7371 11.7629 22.7111C10.1739 22.1811 2.25 19.1221 2.25 10.8881V5.00012C2.25 4.64312 2.50203 4.33401 2.85303 4.26501C7.73303 3.28901 9.46305 2.43111 11.6541 1.34411C11.8651 1.23911 12.145 1.22519 12.356 1.33019C14.517 2.41919 16.2239 3.28001 21.1479 4.26501C21.4989 4.33501 21.751 4.64312 21.751 5.00012V10.889C21.751 19.123 13.827 22.182 12.238 22.712C12.16 22.737 12.08 22.7501 12 22.7501ZM3.75 5.61218V10.8881C3.75 17.7531 10.168 20.5482 12 21.2052C13.832 20.5482 20.25 17.7521 20.25 10.8881V5.61218C15.829 4.68718 13.9699 3.81901 12.0149 2.83801C9.93789 3.86501 8.135 4.69618 3.75 5.61218ZM11.542 14.5301L15.542 10.5301C15.835 10.2371 15.835 9.76211 15.542 9.46911C15.249 9.17611 14.774 9.17611 14.481 9.46911L11.011 12.9391L9.54102 11.4691C9.24802 11.1761 8.77298 11.1761 8.47998 11.4691C8.18698 11.7621 8.18698 12.2371 8.47998 12.5301L10.48 14.5301C10.626 14.6761 10.818 14.7501 11.01 14.7501C11.202 14.7501 11.396 14.6771 11.542 14.5301Z" fill="currentColor"/>
</svg>

<svg xmlns="http://www.w3.org/2000/svg" width="24" height="24" fill="none"><path fill="currentColor" d="M12 22.75a.741.741 0 0 1-.237-.039c-1.59-.53-9.513-3.589-9.513-11.823V5c0-.357.252-.666.603-.735 4.88-.976 6.61-1.834 8.801-2.92a.822.822 0 0 1 .702-.015c2.161 1.09 3.868 1.95 8.792 2.935A.75.75 0 0 1 21.75 5v5.889c0 8.234-7.924 11.293-9.513 11.823a.78.78 0 0 1-.238.038ZM3.75 5.612v5.276c0 6.865 6.418 9.66 8.25 10.317 1.832-.657 8.25-3.453 8.25-10.317V5.612c-4.421-.925-6.28-1.793-8.235-2.774-2.077 1.027-3.88 1.858-8.265 2.774Zm7.792 8.918 4-4a.75.75 0 1 0-1.061-1.06l-3.47 3.47-1.47-1.47a.75.75 0 0 0-1.061 1.06l2 2a.748.748 0 0 0 1.062 0Z"/></svg>
